X: 37095
T: Silver Vale, The
R: jig
M: 6/8
K: Dmajor
|:dAF AGF|dAF AGF|A,CE GFG|A,CE GFE|
DFA DGB|Ace d2e|fed cBA|1 GFE D3:|2 GFE D2e||
|:fdf a^ga|fdc d2f|ede gfg|efd cde|
fef gfg|aga bag|fed cBA|1 GFE D2e:|2 GFE D3||

